!!!!SEGMENT: pl-sa--144-a-iii-44--004_anonim--msza-dominikalnska-sanctus.krn
!!!cenid: 17xx:1670
!!!COM: Anonim
!!!COM-rismid: pe30004985
!!!CDT:
!!!CNT:
!!!OPR: Msza Dominikańska
!!!OTL: Sanctus
!!!OMV: 004
!!!PDT:
!!!AGN: Sacred; Mass
!!!SMS-siglum: PL-SA
!!!SMS-shelfmark: 144/A III 44
!!!SMS-shelfwork: 001-004 M
!!!SMS-variant:
!!!SMS-altvar:
!!!NIFC-rismid: 1001035510
!!!URL-scan: http://bc.bdsandomierz.pl/dlibra/publication/1501/edition/1469/content
!!!ONB-nifc: UWAGA: części Mszy: 1. Kyrie, 2. Laudamus, 3. Patrem, 4. Sanctus, 5. Agnus Dei
!!!AIN: 2 soprn
!!!key: F
**kern	**text	**kern	**text
*part2	*part2	*part1	*part1
*staff2	*staff2	*staff1	*staff1
*I"Canto 2do.	*	*I"Canto	*
*I'S II	*	*I'S	*
*ICvox	*	*ICvox	*
*Isoprn	*	*Isoprn	*
*clefC1	*	*clefC1	*
*k[b-]	*	*k[b-]	*
*F:	*	*F:	*
*M2/2	*	*M2/2	*
*met(C.|)	*	*met(C.|)	*
=1	=1	=1	=1
!LO:TX:t=P:2\right:problem	!	!	!
1a	San-	1cc	San-
=2	=2	=2	=2
2.f/	.	2.a\	.
4g/	.	4b-\	.
=3	=3	=3	=3
2.a\	.	2.cc\	.
4g\	.	4b-\	.
=4	=4	=4	=4
2.f/	.	2.a\	.
4g/	.	4b-\	.
=5	=5	=5	=5
2.a\	.	2.cc\	.
4g\	.	4b-\	.
=6	=6	=6	=6
2.f/	.	2.a\	.
4e/	.	4g\	.
=7	=7	=7	=7
1f	-ctus	1f	-ctus
=8	=8	=8	=8
2.g/	Do-	2.b-\	Do-
4f/	.	4a\	.
=9	=9	=9	=9
2e/	.	2g\	.
2a\	.	2cc\	.
!	!	!LO:LB:g=original	!
=10	=10	=10	=10
2.f/	.	2.a\	.
4e/	-mi-	4g\	-mi-
=11	=11	=11	=11
2f/	-nus	2f/	-nus
4g/	De-	4b-\	De-
4f/	-us	4a\	-us
!LO:LB:g=original	!	!	!
=12	=12	=12	=12
2.e/	Sa-	2.g\	Sa-
4e/	-ba-	4g\	-ba-
=13	=13	=13	=13
1f	-hoth	1a	-hoth.
=14||	=14||	=14||	=14||
2.f#X/	Ple-	2.a\	Ple-
4g/	.	4b-\	.
=15	=15	=15	=15
2a\	-ni	2cc\	-ni
2f/	sunt	2a\	sunt
=16	=16	=16	=16
2b-\	Cae-	2dd\	Cae-
4a\	-li	4cc\	-li
4g\	et	4b-\	et
=17	=17	=17	=17
2a\	ter-	2cc\	ter-
2f/	.	2a\	.
=18	=18	=18	=18
2g/	.	2b-\	.
4f/	.	4a\	.
4e/	.	4g\	.
=19	=19	=19	=19
1f	-ra	1a	-ra
!	!	!LO:LB:g=original	!
=20	=20	=20	=20
2d/	glo-	2bn\	glo-
4e/	-ri-	4cc\	-ri-
4e/	-a	4cc\	-a
=21	=21	=21	=21
2e/	tu-	2cc\	tu-
2d/	.	2bn\	.
=22	=22	=22	=22
2e/	-a	2cc\	-a
2g/	O-	2b-X\	O-
=23	=23	=23	=23
2f/	-san-	2a\	-san-
2a\	-na	2cc\	-na
!LO:LB:g=original	!	!	!
=24	=24	=24	=24
2b-\	in	2dd\	jn
2g\	ex-	2b-\	ex-
=25	=25	=25	=25
4f/	-Cael-	4a\	-cel-
4g/	.	4b-\	.
4a/	.	4cc\	.
4f/	.	4a\	.
=26	=26	=26	=26
1g	.	1b-	.
=27	=27	=27	=27
1f	-sis	1a	-sis
=28	=28	=28	=28
2g\	In	2b-\	In
2a\	ex-	2cc\	ex-
=29	=29	=29	=29
1g	-cCael-	1b-	-cel-
=30	=30	=30	=30
1f	-sis	1a	-sis
!	!	!LO:LB:g=original	!
=31||	=31||	=31||	=31||
1f#X	Be-	1a	Be-
=32	=32	=32	=32
1g	-ne-	1b-	-ne-
=33	=33	=33	=33
2g/	-dic-	2b-\	-dic-
2e/	.	2g\	.
=34	=34	=34	=34
1a	-tus	1cc	-tus
=35	=35	=35	=35
2a\	qui	2cc\	qui
2f/	.	2a\	.
=36	=36	=36	=36
1b-	Ve-	1dd	ve-
=37	=37	=37	=37
2g/	-nit	2b-\	-nit
2e/	in	2g\	In
=38	=38	=38	=38
1a	No-	1cc	No-
!LO:LB:g=original	!	!	!
=39	=39	=39	=39
2f/	.	2a\	.
2f/	.	2f/	.
=40	=40	=40	=40
2g/	.	2b-\	.
4f/	-mi-	4a\	-mi-
4f/	-ne	4a\	-ne
=41	=41	=41	=41
2.e/	Do-	2.g\	Do-
4e/	-mi-	4g\	-mi-
=42	=42	=42	=42
2f/	-ni	2a\	-ni
2a/	In	2cc\	In
!	!	!LO:LB:g=original	!
=43	=43	=43	=43
2.b-\	No-	2.dd\	No-
4b-\	-mi-	4dd\	-mi-
=44	=44	=44	=44
2a\	-ne	2cc\	-ne
2f/	in	2a\	in
=45	=45	=45	=45
2.g\	No-	2.b-\	No-
4g\	-mi-	4b-\	-mi-
=46	=46	=46	=46
2f/	-ne	2a\	-ne
4g/	Do-	4b-\	Do-
4f/	.	4a\	.
=47	=47	=47	=47
2.e/	.	2.g/	.
4e/	-mi-	4g/	-mi-
=48	=48	=48	=48
1f	-ni	1a	-ni
=49	=49	=49	=49
1g	O-	1b-	O-
=50	=50	=50	=50
2f/	-San-	2a\	-San-
2a/	-na	2cc\	-na
!LO:LB:g=original	!	!	!
=51	=51	=51	=51
2b-\	.	2dd\	In
2g\	.	2b-\	ex-
=52	=52	=52	=52
4f/	.	4a\	-Cael-
4g/	.	4b-\	.
4a/	.	4cc\	.
4f/	.	4a\	.
!	!	!LO:LB:g=original	!
=53	=53	=53	=53
1g	.	1b-	.
=54	=54	=54	=54
1f	.	1a	-sis
=55	=55	=55	=55
2g/	.	2b-\	In
2a/	.	2cc\	ex-
=56	=56	=56	=56
1g	.	1b-	-cel-
=57	=57	=57	=57
1f	.	1a	-sis
==	==	==	==
*-	*-	*-	*-
!!!system-decoration: [(s1,s2)]
!!!ENC: Berenika Jozajtis
!!!END: 2020-12-09
!!!ENC: Jan Barakat
!!!END: 2022-03-28
